X: 1
T: House Of Hamill, The
M: 4/4
L: 1/8
R: reel
K: Edor
EBBA BFAF|EBBc dAFD|EBBA (3Bcd ef|gfec dAFD|
EBBA BFAF|EBBc dAFD|EBBA (3Bcd ef|gfec dAFA|
BE~E2 dE~E2|BE~E2 dAFA|BE~E2 (3Bcd ef|gfec dAFA|
BE~E2 dE~E2|BE~E2 dAFA|BE~E2 (3Bcd ef|gfec dAFA|
B2^GB eBGB|BA^GB ADFA|B2^GB eBGB|=gfec dAFA|
B2^GB eBGB|BA^GB ADFA|BA=GF GBef|gfec dAFD|
B2^GB eBGB|BA^GB ADFA|BA=GF GBef|gfec dAFD|
